X: 01046
T: The GALLOPING SNAPSHOT
C: Bob McQuillen mar 75
B: Bob's Note Book 1 #46
%R: jig
Z: 2019 John Chambers <jc:trillian.mit.edu>
M: 6/8
L: 1/8
K: D
F/G/ \
| ABA AFG | ABA AFG | ABc dcB | AGF E2F/G/ |\
| ABA AFG | ABc dcB | Add ede | fdd d2 :|
|: e \
| fgf efe | ded cdc | Bcd Adf | agf e2e |\
| fgf efe | ded cBA | Bcd Agf | edc d2 :|
%%begintext align
%% Good Luck, "Monadnock Movies".
%% Watch out, MGM!
%%endtext

%%sep 1 1 500

%%sep 1 1 500

